svg/calendar.svg

<svg xmlns="http://www.w3.org/2000/svg" width="23.281" height="23.281" viewBox="0 0 23.281 23.281"><path fill="#446E5D" d="M16.15 9.39h-1.5v1.5h1.5v-1.5zm0 3.957h-1.5v1.5h1.5v-1.5zm-3.76 0h-1.5v1.5h1.5v-1.5zm0-3.958h-1.5v1.5h1.5v-1.5zm-3.76 0h-1.5v1.5h1.5v-1.5zm7.542-3.998V3.89h-1V5.39H8.11V3.89h-1V5.39H3.64v14h16v-14h-3.468zm2.468 13h-14v-12h14v12zM8.63 13.347h-1.5v1.5h1.5v-1.5z"/></svg>

<?xml version="1.0" encoding="utf-8"?>
<!-- Generator: Adobe Illustrator 18.1.0, SVG Export Plug-In . SVG Version: 6.00 Build 0)  -->
<svg version="1.1" id="Layer_1" xmlns="http://www.w3.org/2000/svg" xmlns:xlink="http://www.w3.org/1999/xlink" x="0px" y="0px"
	 width="23.281px" height="23.281px" viewBox="0 0 23.281 23.281" enable-background="new 0 0 23.281 23.281" xml:space="preserve">
<path fill="#446E5D" d="M16.151,9.389h-1.5v1.5h1.5V9.389z M16.151,13.347h-1.5v1.5h1.5V13.347z M12.391,13.347h-1.5v1.5h1.5V13.347
	z M12.391,9.389h-1.5v1.5h1.5V9.389z M8.63,9.389h-1.5v1.5h1.5V9.389z M16.172,5.392V3.889h-1v1.503H8.109V3.889h-1v1.503H3.64v14
	h16v-14H16.172z M18.64,18.392h-14v-12h14V18.392z M8.63,13.347h-1.5v1.5h1.5V13.347z"/>
</svg>
